en/guide/_images/other/icons/plus.svg

<svg width="12" height="12" viewBox="0 0 12 12" fill="none" xmlns="http://www.w3.org/2000/svg">
<g clip-path="url(#clip0_42352_253111)">
<path d="M11.2465 6.74317C11.4536 6.7432 11.6215 6.5753 11.6215 6.36818L11.6215 5.6333C11.6215 5.42617 11.4536 5.25827 11.2465 5.25825L6.74246 5.25828L6.74246 0.754236C6.74246 0.547131 6.57457 0.379239 6.36747 0.379239H5.63253C5.42543 0.379239 5.25754 0.547131 5.25754 0.754236L5.25754 5.25828L0.753524 5.25825C0.546398 5.25827 0.378496 5.42617 0.378474 5.6333L0.378527 6.36818C0.378506 6.5753 0.546398 6.7432 0.753524 6.74317L5.25754 6.7432L5.25754 11.2472C5.25754 11.4543 5.42544 11.6222 5.63259 11.6222H6.36741C6.57456 11.6222 6.74246 11.4543 6.74246 11.2472L6.74246 6.7432L11.2465 6.74317Z" fill="#0069FF"/>
</g>
<defs>
<clipPath id="clip0_42352_253111">
<rect width="12" height="12" fill="white" transform="translate(0 0.000976562)"/>
</clipPath>
</defs>
</svg>

<svg xmlns="http://www.w3.org/2000/svg" width="12" height="12" fill="none" viewBox="0 0 12 12"><g clip-path="url(#a)"><path fill="#0069FF" d="M11.246 6.743a.375.375 0 0 0 .375-.375v-.735a.375.375 0 0 0-.375-.375H6.742V.754A.375.375 0 0 0 6.367.38h-.734a.375.375 0 0 0-.375.375v4.504H.754a.375.375 0 0 0-.376.375v.735c0 .207.168.375.376.375h4.504v4.504c0 .207.167.375.375.375h.734a.375.375 0 0 0 .375-.375V6.743h4.504Z"/></g><defs><clipPath id="a"><path fill="#fff" d="M0 .001h12v12H0z"/></clipPath></defs></svg>
